svg/fluentui-system-icons/ic_fluent_globe_star_16_filled.svg

<svg width="16" height="16" viewBox="0 0 16 16" fill="none" xmlns="http://www.w3.org/2000/svg">
<path d="M5.02242 11C5.11102 11.9832 5.45835 12.8917 5.9958 13.6571C4.64214 13.1775 3.5118 12.2258 2.80269 11H5.02242ZM5.02242 10H2.34141C2.12031 9.37444 2 8.70127 2 8C2 7.29873 2.12031 6.62556 2.34141 6H5.11686C5.0406 6.63479 5 7.30663 5 8C5 8.5484 5.0254 9.08333 5.07375 9.59712C5.05183 9.72987 5.03466 9.86422 5.02242 10ZM7.33692 6C6.82475 6.36067 6.37692 6.80657 6.01405 7.31707C6.03296 6.86005 6.0706 6.41928 6.12456 6H7.33692ZM9.708 5C9.59779 4.47343 9.46003 3.99654 9.30109 3.5833C9.08782 3.02877 8.84611 2.61433 8.60319 2.34719C8.3604 2.08019 8.15584 2 8 2C7.84416 2 7.6396 2.08019 7.39681 2.34719C7.15389 2.61433 6.91218 3.02877 6.69891 3.5833C6.53997 3.99654 6.40221 4.47343 6.292 5H9.708ZM13.1973 5H10.7279C10.6018 4.34494 10.4351 3.74596 10.2344 3.22432C10.1001 2.87505 9.94751 2.55238 9.77658 2.26738C11.231 2.7176 12.4488 3.70607 13.1973 5ZM5.27206 5H2.80269C3.55119 3.70607 4.76902 2.7176 6.22341 2.26738C6.05249 2.55238 5.89989 2.87505 5.76556 3.22432C5.56493 3.74596 5.39817 4.34494 5.27206 5ZM10.5 15C12.9853 15 15 12.9853 15 10.5C15 8.01472 12.9853 6 10.5 6C8.01472 6 6 8.01472 6 10.5C6 12.9853 8.01472 15 10.5 15ZM11.4535 9.39228H12.9985C13.4834 9.39228 13.685 10.0391 13.2927 10.3362L12.0428 11.2829L12.5202 12.8146C12.67 13.2953 12.1422 13.6951 11.75 13.398L10.5 12.4513L9.25003 13.398C8.85775 13.6951 8.32996 13.2953 8.4798 12.8146L8.95725 11.2829L7.70728 10.3362C7.31501 10.0391 7.51662 9.39228 8.00149 9.39228H9.54652L10.024 7.86053C10.1738 7.37982 10.8262 7.37982 10.976 7.86053L11.4535 9.39228Z" fill="#212121"/>
</svg>

<svg xmlns="http://www.w3.org/2000/svg" width="16" height="16"><path d="M5.022 11a5.47 5.47 0 0 0 .974 2.657A6.02 6.02 0 0 1 2.803 11h2.22Zm0-1h-2.68A5.99 5.99 0 0 1 2 8c0-.701.12-1.374.341-2h2.776a17.083 17.083 0 0 0-.043 3.597c-.022.133-.04.267-.052.403Zm2.315-4c-.512.36-.96.807-1.323 1.317.019-.457.057-.898.11-1.317h1.213Zm2.371-1a9.263 9.263 0 0 0-.407-1.417c-.213-.554-.455-.969-.698-1.236C8.36 2.08 8.156 2 8 2c-.156 0-.36.08-.603.347-.243.267-.485.682-.698 1.236-.159.414-.297.89-.407 1.417h3.416Zm3.49 0h-2.47a10.522 10.522 0 0 0-.494-1.776 6.178 6.178 0 0 0-.457-.957A6.016 6.016 0 0 1 13.197 5ZM5.271 5h-2.47a6.016 6.016 0 0 1 3.421-2.733c-.17.285-.323.608-.457.957-.201.522-.368 1.12-.494 1.776ZM10.5 15a4.5 4.5 0 1 0 0-9 4.5 4.5 0 0 0 0 9Zm.954-5.608h1.544c.485 0 .687.647.295.944l-1.25.947.477 1.532c.15.48-.378.88-.77.583l-1.25-.947-1.25.947c-.392.297-.92-.103-.77-.583l.477-1.532-1.25-.947c-.392-.297-.19-.944.294-.944h1.546l.477-1.531a.494.494 0 0 1 .952 0l.477 1.531Z"/></svg>
